X:1
T:Juego de Tronos
T:Ramin Djawadi (2011)
T:Arr. Jaime Berruezo (2017)
T:Juego de Tronos
T:Copyright © 
T:Copyright © 
T:Copyright © 
T:Copyright © 
C:Ramin Djawadi (2011)
Z:Arr. Jaime Berruezo (2017)
Z:Copyright ©
%%score [ 1 2 3 ( 4 5 ) ]
L:1/8
Q:1/4=70
M:6/8
K:Cmin
V:1 treble nm="Violín I" snm="Vln. I"
V:2 treble nm="Violín II" snm="Vln. II"
V:3 alto nm="Viola" snm="Vla."
V:4 bass nm="Violonchelo" snm="Vc."
V:5 bass 
V:1
!f!"^. = 70" .g.c.e/.f/ .g.c.e/.f/ | .g.c.e/.f/ .g.c.e/.f/ |!<(! .g.c.=e/.f/ .g.c.e/.f/ | %3
 .g.c.=e/.f/ .g.c.e/!<)!.f/ |!p! .C.C/.C/.C/.C/ .C.C/.C/.C/.C/ | .C.C/.C/.C/.C/ .C.C/.C/.C/.C/ | %6
!f! .d.G.B/.c/ .d.G.B/.c/ | .d.G.B/.c/ .d.G.B/.c/ |!p! .F.F/.F/.F/.F/ .F.F/.F/.F/.F/ | %9
 .F.F/.F/.F/.F/ .F.F/.F/.F/.F/ |!f! .c.F.A/.B/ .c.F.A/.B/ | .c.F.A/.B/ .c.F.A/.B/ | %12
!ff!"^espress." g3 c3 | e/f/ g2 c2 e/f/ | d6- | d6 | f3 B3 | e/d/ f2 B3 | e/d/ c2- c3- | c6 | %20
 g3 c3 | e/f/ g2 c2 e/f/ | d6- | d6 | f3 B3 | (2:3:2de (2:3:2dB | c6- | c6 | c'6 | b6 | a6 | g6 | %32
 c6 | e3 f3 | g6- | g6 | c'6 | b6 | c3 a3 | g6 | c3 f3 | e2 f2 g2 | c6 | %43
!<(! .c.G.A/.B/ .c.G!<)!!ff!.A/.B/ |"^sul pont."!f! .c.G.A/.B/ .c.G.A/.B/ | .c.G.A/.B/ .c.G.A/.B/ | %46
 z6 |] %47
V:2
!f! .G.C.E/.F/ .G.C.E/.F/ | .G.C.E/.F/ .G.C.E/.F/ |!<(! .G.C.=E/.F/ .G.C.E/.F/ | %3
 .G.C.=E/.F/ .G.C.E/!<)!.F/ |!p! .G,.G,/.G,/.G,/.G,/ .G,.G,/.G,/.G,/.G,/ | %5
 .G,.G,/.G,/.G,/.G,/ .G,.G,/.G,/.G,/.G,/ |!f! .D.G,.B,/.C/ .D.G,.B,/.C/ | %7
 .D.G,.B,/.C/ .D.G,.B,/.C/ |!p! .B,.B,/.B,/.B,/.B,/ .B,.B,/.B,/.B,/.B,/ | %9
 .B,.B,/.B,/.B,/.B,/ .B,.B,/.B,/.B,/.B,/ |!f! .[A,F] .[A,F]2 .[A,F] .[A,F]2 | %11
 .[A,F] .[A,F]2 .[A,F] .[A,F]2 |!p! .[CG].[CG]/.[CG]/.[CG]/.[CG]/ .[CG].[CG]/.[CG]/.[CG]/.[CG]/ | %13
 .[CG].[CG]/.[CG]/.[CG]/.[CG]/ .[CG].[CG]/.[CG]/.[CG]/.[CG]/ |!f! .D.G,.B,/.C/ .D.G,.B,/.C/ | %15
 .D.G,.B,/.C/ .D.G,.B,/.C/ | %16
!p! .[B,F].[B,F]/.[B,F]/.[B,F]/.[B,F]/ .[B,F].[B,F]/.[B,F]/.[B,F]/.[B,F]/ | %17
 .[B,F].[B,F]/.[B,F]/.[B,F]/.[B,F]/ .[B,F].[B,F]/.[B,F]/.[B,F]/.[B,F]/ | %18
!f! .[A,F] .[A,F]2 .[A,F] .[A,F]2 | .[A,F] .[A,F]2 .[A,F] .[A,F]2 |!ff!"^espress." G3 C3 | %21
 E/F/ G2 C2 E/F/ | D6- | D6 | F3 B,3 | (2:3:2DE (2:3:2DB, | C6- | C6 | %28
"^più"!f! .c.E.A/.B/ .c.E.A/.c/ | .B.E.G/.A/ .B.E.G/.B/ | .A.C.F/.G/ .A.C.F/.A/ | %31
 .G.C.E/.F/ .G.C.E/.G/ | .A.C.F/.G/ .A.C.F/.G/ | B3 B3 |!f!!<(! .c.G.A/.B/ .c.G.A/.B/ | %35
 .c.G.A/.B/ .c.G.A/!<)!.B/ | c6 | B6 | C3 A3 | G6 | C3 F3 | E2 F2 G2 | %42
!f!!<(! .c.G.A/.B/ .c.G.A/.B/ | .c.G.A/.B/ .c!<)!.G!ff!.A/.B/ | z6 | z6 | z6 |] %47
V:3
!f! [C,G,]6 | .[C,G,] !>![C,G,]2 [C,-G,]3 | [C,G,]6 | .[C,G,] !>![C,G,]2 [C,G,]3 | %4
!p! .[C,G,]2 .[C,G,] .[C,G,]2 .[C,G,] | .[C,G,]2 .[C,G,] .[C,G,]2 .[C,G,] | %6
!f! .[D,G,] .[D,G,]2 .[D,G,] .[D,G,]2 | .[D,G,] .[D,G,]2 .[D,G,] .[D,G,]2 | %8
!p! .[F,B,]2 .[F,B,] .[F,B,]2 .[F,B,] | .[F,B,]2 .[F,B,] .[F,B,]2 .[F,B,] | %10
!f! .C.F,.A,/.B,/ .C.F,.A,/.B,/ | .C.F,.A,/.B,/ .C.F,.A,/.B,/ | %12
!p! .[C,G,]2 .[C,G,] .[C,G,]2 .[C,G,] | .[C,G,]2 .[C,G,] .[C,G,]2 .[C,G,] | %14
!f! .[D,G,] .[D,G,]2 .[D,G,] .[D,G,]2 | .[D,G,] .[D,G,]2 .[D,G,] .[D,G,]2 | %16
!p! .[F,B,]2 .[F,B,] .[F,B,]2 .[F,B,] | .[F,B,]2 .[F,B,] .[F,B,]2 .[F,B,] | %18
!f! .C.F,.A,/.B,/ .C.F,.A,/.B,/ | .C.F,.A,/.B,/ .C.F,.A,/.B,/ | %20
!p! .[C,G,].[C,G,]/.[C,G,]/.[C,G,]/.[C,G,]/ .[C,G,].[C,G,]/.[C,G,]/.[C,G,]/.[C,G,]/ | %21
 .[C,G,].[C,G,]/.[C,G,]/.[C,G,]/.[C,G,]/ .[C,G,].[C,G,]/.[C,G,]/.[C,G,]/.[C,G,]/ | %22
!f! .D.G,.B,/.C/ .D.G,.B,/.C/ | .D.G,.B,/.C/ .D.G,.B,/.C/ | %24
!p! .[D,B,].[D,B,]/.[D,B,]/.[D,B,]/.[D,B,]/ .[D,B,].[D,B,]/.[D,B,]/.[D,B,]/.[D,B,]/ | %25
 .[D,B,].[D,B,]/.[D,B,]/.[D,B,]/.[D,B,]/ .[D,B,].[D,B,]/.[D,B,]/.[D,B,]/.[D,B,]/ | %26
!f! .C.G,.A,/.B,/ .C.G,.A,/.B,/ | .C.G,.A,/.B,/ .C.G,.A,/.B,/ | E,6 | G,6 | A,6 | G,6 | C,6 | %33
 G,3 G,3 |!f!!<(! .C.G,.A,/.B,/ .C.G,.A,/.B,/ | .C.G,.A,/.B,/ .C.G,.A,/!<)!.B,/ | %36
"^più"!f! .C.E,.A,/.B,/ .C.E,.A,/.C/ | .B,.E,.G,/.A,/ .B,.E,.G,/.B,/ | %38
 .A,.C,.F,/.G,/ .A,.C,.F,/.A,/ | .G,.C,.E,/.F,/ .G,.C,.E,/.G,/ | .A,.C,.F,/.G,/ .A,.C,.A,/.C/ | %41
 .D.G,.B,/.C/ .D.G,.B,/.D/ |!f!!<(! .C.G,.A,/.B,/ .C.G,.A,/.B,/ | %43
 .C.G,.A,/.B,/ .C!<)!.G,!ff!.A,/.B,/ | z6 | z6 | z6 |] %47
V:4
 z6 | z6 | z6 | z6 |!ff!"^espress." G,3 C,3 | E,/F,/ G,2 C,2 E,/F,/ | D,6- | [G,,D,]6 | F,3 B,,3 | %9
 E,/D,/ F,2 B,,3 | E,/D,/ C,2- C,3- | C,- [C,,C,]2- [C,,C,]3 | G,3 C,3 | E,/F,/ G,2 C,2 E,/F,/ | %14
 D,6- | [G,,D,]6 | F,3 B,,3 | E,/D,/ F,2 B,,3 | E,/D,/ C,2- C,3- | [C,,C,]6 | %20
!p! .[C,,G,,]2 .[C,,G,,] .[C,,G,,]2 .[C,,G,,] | .[C,,G,,]2 .[C,,G,,] .[C,,G,,]2 .[C,,G,,] | %22
!f! .[G,,D,] .[G,,D,]2 .[G,,D,] .[G,,D,]2 | .[G,,D,] .[G,,D,]2 .[G,,D,] .[G,,D,]2 | %24
!p! .[B,,F,]2 .[B,,F,] .[B,,F,]2 .[B,,F,] | .[B,,F,]2 .[B,,F,] .[B,,F,]2 .[B,,F,] | %26
!f! .[C,,G,,] .[C,,G,,]2 .[C,,G,,] .[C,,G,,]2 | .[C,,G,,] .[C,,G,,]2 .[C,,G,,] .[C,,G,,]2 | A,,6 | %29
 E,,6 | F,,6 | C,,6 | F,,6 | E,,3 D,,3 | C,,6- | C,,6 | A,,6 | E,,6 | F,,6 | C,,6 | F,,6 | G,,6 | %42
!f!!<(! C,,6-!<)! | C,,6 | z6 | z6 | z6 |] %47
V:5
 x6 | x6 | x6 | x6 | x6 | x6 | x6 | x6 | x6 | x6 | x6 | x6 | x6 | x6 | x6 | x6 | x6 | x6 | x6 | %19
 x6 | x6 | x6 | x6 | x6 | x6 | x6 | x6 | x6 | x6 | x6 | x6 | x6 | x6 | x6 | x6 | x6 | x6 | x6 | %38
 x6 | x6 | x6 | (E,,3 D,,3) | x6 | x6 | x6 | x6 | x6 |] %47

